X:1
T:Veni Creator
T:Veni Creator
T:John Farmer
T:Source : The Whole Book of Psalms---London---Musical Antiquarian Society---1844. First publication: London---Th.Est(e)---1592. Editor : André Vierendeels (17/08/16).
T:©
T:©
T:©
C:John Farmer
Z:©
%%score [ 1 2 3 4 ]
L:1/8
Q:1/4=120
M:4/4
K:F
V:1 treble nm="Soprano" snm="S"
V:2 treble nm="Alto" snm="A"
V:3 treble-8 nm="Tenor" snm="T"
V:4 bass nm="Bass" snm="B"
V:1
 A8 | B4 A4 | A4 A4 | A4 G4 | A8 || c8 | F2 G2 A4 | B4 c4 | c8 || c8 | c4 c4 | c4 c4 | c4 =B4 | %13
w: Com'|ho- ly|Ghost, e-|ter- nal|God,|pro-|ce- * ding|from a-|bov',|both|from the|Fa- ther|and the|
 c8 || A8 | G4 d4 | d4 ^c4 | d8 || B8 | A4 c4 | B4 A4 | G4 G4 | ^F8 || F8 | D4 E4 | F4 E4 | E8 || %27
w: Son,|the|God of|peac' and|lov',|vi-|sit our|minds and|in- to|us,|thy|heav'n- ly|grac' in-|spir',|
 F8 | A4 c4 | B4 A4 | A4 G4 | A8 || A8 | d4 d4 | d4 ^c4 | !fermata!d8 |] %36
w: that|in all|truth and|god- li-|ness,|we|may hav'|true de-|sir'.|
V:2
 F8 | G4 E4 | F4 E4 | D6 D2 | ^C8 || F8 | F6 F2 | G4 G4 | A8 || A8 | G4 F4 | A4 G4 | A4 G4 | E8 || %14
w: Com'|ho- ly|Ghost, e-|ter- nal|God,|pro-|ce- ding|from a-|bov',|both|from the|Fa- ther|and the|Son,|
 D8 | B4 A4 | A6 G2 | ^F8 || D8 | F4 G4 | F4 F4 | D4 _E4 | D8 || D4 D4- | D4 ^C4 | D4 A,4 | ^C8 || %27
w: the|God of|peac' and|lov',|vi-|sit our|minds and|in- to|us,|thy heav'n-|* ly|grac' in-|spir',|
 D8 | F4 E4 | G4 F2 E2 | D6 D2 | ^C8 || F8 | A4 G4 | B4 A2 G2 | !fermata!^F8 |] %36
w: that|in all|truth and- *|god- li-|ness,|we|may hav'|true de- *|sir'.|
V:3
 d8 | d4 c4 | d4 e4 | f4 d4 | e8 || A8 | d4 c4 | d4 e4 | f8 || f8 | e4 c4 | f4 e4 | d4 d4 | c8 || %14
w: Com'|ho- ly|Ghost, e-|ter- nal|God,|pro-|ce- ding|from a-|bov',|both|from the|Fa- ther|and the|Son,|
 f8 | d4 f4 | e4 e4 | d8 || d8 | d4 c4 | d4 A4 | B4 c4 | A8 || A8 | A4 G4 | A4 E4 | A8 || A8 | %28
w: the|God of|peac' and|lov',|vi-|sit our|minds and|in- to|us,|thy|heav'n- ly|grac' in-|spir',|that|
 d4 c4 | d4 e4 | f4 d4 | e8 || d8 | f4 d4 | e4 e4 | !fermata!d8 |] %36
w: in all|truth and|god- li-|ness,|we|may hav'|true de-|sir'.|
V:4
 D,8 | G,4 A,4 | D,4 ^C,4 | D,4 B,4 | A,8 || F,8 | B,4 A,4 | G,4 C,4 | F,8 || F,8 | C4 A,4 | %11
w: Com'|ho- ly|Ghost, e-|ter- nal|God,|pro-|ce- ding|from a-|bov',|both|from the|
 F,4 C,4 | F,4 G,4 | C,8 || D,8 | G,4 D,4 | A,4 A,,4 | D,8 || G,8 | F,4 E,4 | D,4 F,4 | G,4 C,4 | %22
w: Fa- ther|and the|Son,|the|God of|peac' and|lov',|vi-|sit our|minds and|in- to|
 D,8 || D,8 | F,4 E,4 | D,4 ^C,4 | A,,8 || D,8 | D,4 A,4 | G,4 C4 | B,6 B,2 | A,8 || D,4 D4- | %33
w: us,|thy|heav'n- ly|grac' in-|spir',|that|in all|truth and|god- li-|ness,|we may|
 D4 B,4 | G,4 A,4 | !fermata!D,8 |] %36
w: _ hav'|true de-|sir'.|

